X: 335
T:Butlers Of Glen Avenue, Roaring Barmaid
L:1/8
R:jig
C:Anthony O'Sullivan
M:6/8
Z: Crummy, Peter
K:G
EDG EDG|DEG B~B2|DEG B2e|dBe dBA|
EDG EDG|DEG B~B2|dBd gfe|1 dBA G~G2:|2 dBa g3||
gab age|deg B~B2|gab gab|dBd e2d|
gab age|deg B~B2|dBd gfe|1 dBa g~g2:|2 dBA G3||

